X: 8
T: Freylachs "Leybele Basyak"
O: German Goldenshteyn v.1#4
Q: 1/4=110
M: 2/4
L: 1/8
K: Em
|: "Em"e/e/e/e/ Be | g4 | ga ga | gf e2 \
| "Am"a2 e2 | ea gf | "Em"g3 b/b/ | (b/^a/)(a/g/) (g/f/) (f/e/) |
| "Em"e/e/e/e/ Be | g4 | ga ga | gf e2 \
| "Am"a2 e2 | ea gf | "Em"e4- | e2 z2 :|
|: "Em"e2 ~b>a | g2- gg/g/ | gb gb | gf e2 \
| e2 (~b>a) | g2- gg/g/ | ga "D"fg | "Em"e2 z2 :|
